X: 32
T:(The) Ash Grove
M:3/4
L:1/4
C:
R:Key of D
K:D
A,|DFA/2G/2|FDD|EG/2F/2E/2D/2|CA,A,|!
DF/2E/2D/2C/2|B,B,B,|A,DC|D2A,|DFA/2G/2|FDD|!
EG/2F/2E/2D/2|CA,A,|DF/2E/2D/2C/2|B,B,B,|A,DC|D2F/2G/2|!
AF/2G/2A/2B/2|AGF|GE/2F/2G/2A/2|GFE|FD/2E/2F/2G/2|FED|!
CAA|A2A,|DFA/2G/2|FDD|EG/2F/2E/2D/2|CA,A,|!
DF/2E/2D/2C/2|B,B,B,|A,DC|D2||
% Output from ABC2Win  Version 2.1 f on 5/4/97
